X:1
T:Title
%%score { 1 | 2 }
L:1/8
M:4/4
K:Bb
V:1 treble nm="Grand Piano"
V:2 bass 
V:1
 z4 z2[Q:1/4=100] [DF][DF] | [B,D]>[CE] [DF][DF] [EG][DF][DF][DF] |[M:3/4] [DB]>[EA] [FB]c d2 | %3
[M:1/4] [Fd][Fd] |[M:4/4] c>c cd ccBc |[M:3/4] [Fd]>[Ec] [DB][EG] [DF]2 |[M:1/4] [DF][DF] | %7
[M:4/4] [B,D]>[CE] [DF][DF] [EG][DF][DF][DF] |[M:7/8] [FB]>[FB][Gc] [Gd] [Ge]3 |[M:1/8] [Gc] | %10
[M:4/4] B2 B2 d2 c2 | [DB]8 | c2 F2 d2 [DB]2 | c>c Bc d2 [DB]2 | G2 B2 F2 [DB]2 | %15
 [DB]>[DB] [Gc][Gc] [^Fd]4 | [Ge]2 [Fc]2 [Fd]2 [DB]2 | [Ec]>[B,GB] [B,FA][B,EG] [B,EG]2 [B,DF]2 | %18
 [B,EG]2 [EGc]2 [DFB]2 [CEA]2 |[M:3/4] [B,DB]6 |] %20
V:2
 z4 z2 [B,,B,][B,,B,] | [B,,F,]>[B,,F,] [B,,B,][B,,B,] [B,,B,][B,,B,][B,,B,][B,,B,] | %2
[M:3/4] [B,,F,]>[C,F,] [D,B,][K:treble][F,A,F] [B,F]2 |[M:1/4][K:bass] [B,,B,][B,,B,] | %4
[M:4/4] [F,A,F]>[F,A,F] [F,A,F][F,B,F] [F,A,F][F,A,F][F,G,F][F,A,] | %5
[M:3/4] [B,,B,]>[B,,B,] [B,,B,][B,,B,] [B,,B,]2 |[M:1/4] [B,,B,][B,,B,] | %7
[M:4/4] [B,,F,]>[B,,F,] [B,,B,][B,,B,] [B,,B,][B,,B,][B,,B,][B,,B,] | %8
[M:7/8] [D,B,]>[D,B,][E,G,] [D,=B,] [C,C]3 |[M:1/8] [E,C] | %10
[M:4/4] [F,DF]2 [F,B,D]2 [F,A,F]2 [F,A,E]2 | [B,,B,]8 | [F,A,F]2 [F,A,]2 [B,F]2 [B,,B,]2 | %13
 [F,A,F]>[F,A,F] [F,G,F][F,A,F] [B,F]2[K:bass] [B,,B,]2 | [E,B,E]2 [G,B,E]2 [B,D]2 [B,,B,]2 | %15
 [G,B,]>[G,B,] [E,G,][E,G,] [D,A,]4 | [C,C]2 [F,A,]2 [B,,B,]2 [G,B,]2 | [E,G,]>E, E,E, B,,2 B,,2 | %18
 E,2 C,2 F,2 F,2 |[M:3/4] B,,6 |] %20

